Numix-GalliumOS/64/devices/media-tape.svg

<?xml version="1.0" encoding="UTF-8" standalone="yes"?>
<svg xmlns="http://www.w3.org/2000/svg" xmlns:xlink="http://www.w3.org/1999/xlink" width="64px" height="64px" viewBox="0 0 48 48" version="1.1">
  <g id="surface1">
    <path style=" stroke:none;fill-rule:nonzero;fill:rgb(14.901961%,14.901961%,14.901961%);fill-opacity:1;" d="M 25.125 24.5625 C 25.125 28.910156 21.597656 32.4375 17.25 32.4375 C 12.902344 32.4375 9.375 28.910156 9.375 24.5625 C 9.375 20.214844 12.902344 16.6875 17.25 16.6875 C 21.597656 16.6875 25.125 20.214844 25.125 24.5625 Z M 25.125 24.5625 "/>
    <path style=" stroke:none;fill-rule:nonzero;fill:rgb(14.901961%,14.901961%,14.901961%);fill-opacity:1;" d="M 37.5 24.5625 C 37.5 28.289062 34.476562 31.3125 30.75 31.3125 C 27.023438 31.3125 24 28.289062 24 24.5625 C 24 20.835938 27.023438 17.8125 30.75 17.8125 C 34.476562 17.8125 37.5 20.835938 37.5 24.5625 Z M 37.5 24.5625 "/>
    <path style=" stroke:none;fill-rule:nonzero;fill:rgb(100%,100%,100%);fill-opacity:1;" d="M 20.625 24.5625 C 20.625 26.425781 19.113281 27.9375 17.25 27.9375 C 15.386719 27.9375 13.875 26.425781 13.875 24.5625 C 13.875 22.699219 15.386719 21.1875 17.25 21.1875 C 19.113281 21.1875 20.625 22.699219 20.625 24.5625 Z M 20.625 24.5625 "/>
    <path style=" stroke:none;fill-rule:nonzero;fill:rgb(100%,100%,100%);fill-opacity:1;" d="M 34.125 24.5625 C 34.125 26.425781 32.613281 27.9375 30.75 27.9375 C 28.886719 27.9375 27.375 26.425781 27.375 24.5625 C 27.375 22.699219 28.886719 21.1875 30.75 21.1875 C 32.613281 21.1875 34.125 22.699219 34.125 24.5625 Z M 34.125 24.5625 "/>
    <path style=" stroke:none;fill-rule:nonzero;fill:rgb(51.372549%,51.764706%,53.333333%);fill-opacity:1;" d="M 2.824219 10.5 C 2.089844 10.5 1.5 11.113281 1.5 11.875 C 1.5 19.917969 1.5 27.957031 1.5 36 C 1.5 36.832031 2.167969 37.5 3 37.5 L 45 37.5 C 45.832031 37.5 46.5 36.832031 46.5 36 C 46.5 27.957031 46.5 19.917969 46.5 11.875 C 46.5 11.113281 45.910156 10.5 45.175781 10.5 Z M 6.855469 18 L 16.5 18 L 16.5 31.5 L 6.855469 31.5 L 6.425781 30.75 C 4.53125 27.039062 4.53125 22.460938 6.425781 18.75 C 6.5625 18.492188 6.703125 18.242188 6.855469 18 Z M 31.5 18 L 41.144531 18 L 41.574219 18.75 C 43.46875 22.460938 43.46875 27.039062 41.574219 30.75 C 41.4375 31.007812 41.296875 31.257812 41.144531 31.5 L 31.5 31.5 Z M 31.5 18 "/>
    <path style=" stroke:none;fill-rule:evenodd;fill:rgb(21.960784%,21.960784%,21.960784%);fill-opacity:1;" d="M 1.5 16.5 L 3.75 16.5 L 3.75 13.5 L 44.25 13.5 L 44.25 16.5 L 46.5 16.5 L 46.5 10.5 L 1.5 10.5 Z M 1.5 16.5 "/>
    <path style=" stroke:none;fill-rule:nonzero;fill:rgb(100%,98.823529%,82.745098%);fill-opacity:1;" d="M 18.75 21 L 29.25 21 C 29.664062 21 30 21.335938 30 21.75 L 30 29.25 C 30 29.664062 29.664062 30 29.25 30 L 18.75 30 C 18.335938 30 18 29.664062 18 29.25 L 18 21.75 C 18 21.335938 18.335938 21 18.75 21 Z M 18.75 21 "/>
    <path style=" stroke:none;fill-rule:nonzero;fill:rgb(96.078431%,47.45098%,47.45098%);fill-opacity:1;" d="M 18.898438 19.5 L 29.101562 19.5 C 29.597656 19.5 30 19.835938 30 20.25 L 30 21.75 C 30 22.164062 29.597656 22.5 29.101562 22.5 L 18.898438 22.5 C 18.402344 22.5 18 22.164062 18 21.75 L 18 20.25 C 18 19.835938 18.402344 19.5 18.898438 19.5 Z M 18.898438 19.5 "/>
    <path style=" stroke:none;fill-rule:nonzero;fill:rgb(73.72549%,73.72549%,73.72549%);fill-opacity:0.513725;" d="M 37.5 10.5 L 37.5 18 L 40.5 18 L 40.5 10.5 Z M 37.5 31.5 L 37.5 37.5 L 40.5 37.5 L 40.5 31.5 Z M 37.5 31.5 "/>
  </g>
</svg>

<svg xmlns="http://www.w3.org/2000/svg" width="64" height="64" viewBox="0 0 48 48">
 <g>
  <path d="m 25.13 24.563 c 0 4.348 -3.527 7.875 -7.875 7.875 c -4.348 0 -7.875 -3.527 -7.875 -7.875 c 0 -4.348 3.527 -7.875 7.875 -7.875 c 4.348 0 7.875 3.527 7.875 7.875 m 0 0" style="fill:#262626;fill-opacity:1;stroke:none;fill-rule:nonzero"/>
  <path d="m 37.5 24.563 c 0 3.727 -3.02 6.75 -6.75 6.75 c -3.727 0 -6.75 -3.02 -6.75 -6.75 c 0 -3.727 3.02 -6.75 6.75 -6.75 c 3.727 0 6.75 3.02 6.75 6.75 m 0 0" style="fill:#262626;fill-opacity:1;stroke:none;fill-rule:nonzero"/>
  <path d="m 20.625 24.563 c 0 1.863 -1.512 3.375 -3.375 3.375 c -1.863 0 -3.375 -1.512 -3.375 -3.375 c 0 -1.863 1.512 -3.375 3.375 -3.375 c 1.863 0 3.375 1.512 3.375 3.375 m 0 0" style="fill:#fff;fill-opacity:1;stroke:none;fill-rule:nonzero"/>
  <path d="m 34.13 24.563 c 0 1.863 -1.512 3.375 -3.375 3.375 c -1.863 0 -3.375 -1.512 -3.375 -3.375 c 0 -1.863 1.512 -3.375 3.375 -3.375 c 1.863 0 3.375 1.512 3.375 3.375 m 0 0" style="fill:#fff;fill-opacity:1;stroke:none;fill-rule:nonzero"/>
  <path d="m 2.824 10.5 c -0.734 0 -1.324 0.613 -1.324 1.375 c 0 8.04 0 16.08 0 24.13 c 0 0.832 0.668 1.5 1.5 1.5 l 42 0 c 0.832 0 1.5 -0.668 1.5 -1.5 c 0 -8.04 0 -16.08 0 -24.12 c 0 -0.762 -0.59 -1.375 -1.324 -1.375 m -38.32 7.5 l 9.645 0 l 0 13.5 l -9.645 0 l -0.43 -0.75 c -1.895 -3.711 -1.895 -8.289 0 -12 c 0.137 -0.258 0.277 -0.508 0.43 -0.75 m 24.645 0 l 9.645 0 l 0.43 0.75 c 1.895 3.711 1.895 8.289 0 12 c -0.137 0.258 -0.277 0.508 -0.43 0.75 l -9.645 0 m 0 -13.5" style="fill:#828487;fill-opacity:1;stroke:none;fill-rule:nonzero"/>
  <path d="m 1.5 16.5 l 2.25 0 l 0 -3 l 40.5 0 l 0 3 l 2.25 0 l 0 -6 l -45 0 m 0 6" style="fill:#373737;fill-opacity:1;stroke:none;fill-rule:evenodd"/>
  <path d="m 18.75 21 l 10.5 0 c 0.414 0 0.75 0.336 0.75 0.75 l 0 7.5 c 0 0.414 -0.336 0.75 -0.75 0.75 l -10.5 0 c -0.414 0 -0.75 -0.336 -0.75 -0.75 l 0 -7.5 c 0 -0.414 0.336 -0.75 0.75 -0.75 m 0 0" style="fill:#fffbd2;fill-opacity:1;stroke:none;fill-rule:nonzero"/>
  <path d="m 18.898 19.5 l 10.203 0 c 0.496 0 0.898 0.336 0.898 0.75 l 0 1.5 c 0 0.414 -0.402 0.75 -0.898 0.75 l -10.203 0 c -0.496 0 -0.898 -0.336 -0.898 -0.75 l 0 -1.5 c 0 -0.414 0.402 -0.75 0.898 -0.75 m 0 0" style="fill:#f47878;fill-opacity:1;stroke:none;fill-rule:nonzero"/>
  <path d="m 37.5 10.5 l 0 7.5 l 3 0 l 0 -7.5 m -3 21 l 0 6 l 3 0 l 0 -6 m -3 0" style="fill:#bbb;fill-opacity:0.514;stroke:none;fill-rule:nonzero"/>
 </g>
</svg>
